X:569
T:Parsons Farewell
N:Also for the dance "Oxford Circus" by Colin Hume
C:John Playford, 1651
M:2/2
L:1/4
S:Colin Hume's website,  colinhume.com  - chords can also be printed below the stave.
Q:1/2=116
K:Dm
P:A
|: "Dm"fdde/f/ | "C"gcc3/c/ | "Bb"d/e/fed |1 "Am"cAA2 :|2 "Am"cAA ||
P:B
|: a | "F"f2fa | "Gm"f2fa | "F/A"f/g/a "Bb"f/g/a | "C"gee2 |\
"C"e/f/g "A7/C#"e/f/g | "Dm"fd "Bb"d/e/f/g/ | "Gm"ag/f/ "A7"e/d/e | "Dm"d3 :|

